assets/quickbooks-logo-dark.svg

<?xml version="1.0" encoding="UTF-8" standalone="no" ?>
<!DOCTYPE svg PUBLIC "-//W3C//DTD SVG 1.1//EN" "http://www.w3.org/Graphics/SVG/1.1/DTD/svg11.dtd">
<svg xmlns="http://www.w3.org/2000/svg" xmlns:xlink="http://www.w3.org/1999/xlink" version="1.1" xml:space="preserve">
<desc>Created with Fabric.js 5.2.4</desc>
<defs>
</defs>
<g transform="matrix(1 0 0 1 540 540)" id="b3e66612-07d3-4dbc-8fb6-0fcecba420bd"  >
</g>
<g transform="matrix(1 0 0 1 540 540)" id="befefa5e-5083-4a86-868b-3802a039708a"  >
<rect style="stroke: none; stroke-width: 1; stroke-dasharray: none; stroke-linecap: butt; stroke-dashoffset: 0; stroke-linejoin: miter; stroke-miterlimit: 4; fill: rgb(255,255,255); fill-rule: nonzero; opacity: 1; visibility: hidden;" vector-effect="non-scaling-stroke"  x="-540" y="-540" rx="0" ry="0" width="1080" height="1080" />
</g>
<g transform="matrix(4.01 0 0 4.01 123.39 525.21)"  >
<path style="stroke: none; stroke-width: 0; stroke-dasharray: none; stroke-linecap: butt; stroke-dashoffset: 0; stroke-linejoin: miter; stroke-miterlimit: 4; fill: rgb(44,160,28); fill-rule: nonzero; opacity: 1;" vector-effect="non-scaling-stroke"  transform=" translate(-30.77, -30.77)" d="M 30.77 61.54 C 47.76 61.54 61.54 47.76 61.54 30.77 C 61.54 13.780000000000001 47.76 0 30.77 0 C 13.780000000000001 0 0 13.78 0 30.77 C 0 47.76 13.77 61.54 30.77 61.54 Z" stroke-linecap="round" />
</g>
<g transform="matrix(4.01 0 0 4.01 123.34 525.16)"  >
<path style="stroke: none; stroke-width: 0; stroke-dasharray: none; stroke-linecap: butt; stroke-dashoffset: 0; stroke-linejoin: miter; stroke-miterlimit: 4; fill: rgb(255,255,255); fill-rule: nonzero; opacity: 1;" vector-effect="non-scaling-stroke"  transform=" translate(-30.77, -30.77)" d="M 20.51 18.8 C 13.900000000000002 18.8 8.540000000000001 24.16 8.540000000000001 30.770000000000003 C 8.540000000000001 37.38000000000001 13.89 42.730000000000004 20.51 42.730000000000004 L 22.220000000000002 42.730000000000004 L 22.220000000000002 38.290000000000006 L 20.51 38.290000000000006 C 16.36 38.290000000000006 12.990000000000002 34.92000000000001 12.990000000000002 30.770000000000007 C 12.990000000000002 26.620000000000005 16.360000000000003 23.250000000000007 20.51 23.250000000000007 L 24.62 23.250000000000007 L 24.62 46.50000000000001 C 24.62 48.95000000000001 26.61 50.940000000000005 29.060000000000002 50.940000000000005 L 29.060000000000002 18.8 L 20.51 18.8 L 20.51 18.8 Z M 41.03 42.730000000000004 C 47.64 42.730000000000004 53 37.370000000000005 53 30.770000000000003 C 53 24.17 47.65 18.810000000000002 41.03 18.810000000000002 L 39.32 18.810000000000002 L 39.32 23.250000000000004 L 41.03 23.250000000000004 C 45.18 23.250000000000004 48.55 26.620000000000005 48.55 30.770000000000003 C 48.55 34.92 45.18 38.290000000000006 41.03 38.290000000000006 L 36.92 38.290000000000006 L 36.92 15.04 C 36.92 12.59 34.93 10.599999999999998 32.480000000000004 10.599999999999998 L 32.480000000000004 42.730000000000004 L 41.03 42.730000000000004 C 41.03 42.730000000000004 41.03 42.730000000000004 41.03 42.730000000000004 Z" stroke-linecap="round" />
</g>
<g transform="matrix(4.01 0 0 4.01 681.16 546.17)"  >
<path style="stroke: rgb(0,0,0); stroke-width: 0; stroke-dasharray: none; stroke-linecap: butt; stroke-dashoffset: 0; stroke-linejoin: miter; stroke-miterlimit: 4; fill: rgb(255,255,255); fill-rule: nonzero; opacity: 1;" vector-effect="non-scaling-stroke"  transform=" translate(-169.95, -36)" d="M 90.75 69 L 85.99 69 L 85.99 56.95 L 85.91 56.95 C 84.67999999999999 58.85 82.25999999999999 60.040000000000006 79.6 60.040000000000006 C 73.80999999999999 60.040000000000006 70.24 55.440000000000005 70.24 49.89000000000001 C 70.24 44.34000000000001 74.05 39.89000000000001 79.47999999999999 39.89000000000001 C 82.96999999999998 39.89000000000001 85.10999999999999 41.59000000000001 86.05999999999999 43.10000000000001 L 86.17999999999999 43.10000000000001 L 86.17999999999999 40.44000000000001 L 90.74 40.44000000000001 L 90.74 69.00000000000001 L 90.74 69.00000000000001 C 90.74 69.00000000000001 90.74 69.00000000000001 90.74 69.00000000000001 Z M 80.56 56.07 C 84.05 56.07 86.15 52.94 86.15 49.96 C 86.15 46.980000000000004 84.05000000000001 43.77 80.56 43.77 C 76.88 43.77 75.09 46.900000000000006 75.09 49.88 C 75.09 52.85 76.87 56.07 80.56 56.07 L 80.56 56.07 Z M 112.11 59.480000000000004 L 107.59 59.480000000000004 L 107.59 56.42 L 107.51 56.42 C 106.68 58.32 104.42 60.03 101.60000000000001 60.03 C 96.64000000000001 60.03 94.58000000000001 56.22 94.58000000000001 52.34 L 94.58000000000001 40.440000000000005 L 99.34000000000002 40.440000000000005 L 99.34000000000002 50.99000000000001 C 99.34000000000002 53.25000000000001 99.85000000000002 56.06000000000001 102.91000000000001 56.06000000000001 C 105.97 56.06000000000001 107.35000000000001 53.44000000000001 107.35000000000001 50.91000000000001 L 107.35000000000001 40.44000000000001 L 112.11000000000001 40.44000000000001 L 112.11000000000001 59.47000000000001 C 112.11000000000001 59.47000000000001 112.11000000000001 59.47000000000001 112.11000000000001 59.47000000000001 Z M 116.89 40.03 L 121.65 40.03 L 121.65 59.07 L 116.89 59.07 C 116.89 59.07 116.89 40.03 116.89 40.03 Z M 139.44 45.72 C 138.69 44.65 137.06 43.85 135.51 43.85 C 132.01999999999998 43.85 130.26999999999998 46.980000000000004 130.26999999999998 49.96 C 130.26999999999998 52.94 132.05999999999997 56.07 135.65999999999997 56.07 C 137.12999999999997 56.07 138.74999999999997 55.47 139.66999999999996 54.37 L 142.63999999999996 57.379999999999995 C 141.04999999999995 59.08 138.42999999999995 60.03999999999999 135.61999999999995 60.03999999999999 C 129.98999999999995 60.03999999999999 125.30999999999995 56.309999999999995 125.30999999999995 49.96999999999999 C 125.30999999999995 43.62999999999999 129.90999999999994 39.89999999999999 135.49999999999994 39.89999999999999 C 138.27999999999994 39.89999999999999 141.16999999999993 41.00999999999999 142.67999999999995 42.86999999999999 L 139.42999999999995 45.71999999999999 L 139.42999999999995 45.71999999999999 Z M 145.04 29.5 L 149.79999999999998 29.5 L 149.79999999999998 48.45 L 149.92 48.45 L 157.14 40.440000000000005 L 163.25 40.440000000000005 L 155 49.050000000000004 L 163.77 59.480000000000004 L 157.47 59.480000000000004 L 149.93 49.720000000000006 L 149.81 49.720000000000006 L 149.81 59.480000000000004 L 145.05 59.480000000000004 L 145.05 29.510000000000005 L 145.05 29.510000000000005 Z M 170.69 29.5 L 170.69 42.87 L 170.81 42.87 C 171.8 41.64 173.7 39.9 177.2 39.9 C 182.63 39.9 186.44 44.26 186.44 49.9 C 186.44 55.54 182.87 60.05 177.07999999999998 60.05 C 174.42 60.05 171.83999999999997 58.82 170.54 56.64 L 170.45999999999998 56.64 L 170.45999999999998 59.5 L 165.93999999999997 59.5 L 165.93999999999997 29.51 L 170.69999999999996 29.51 Z M 176.12 43.78 C 172.63 43.78 170.53 46.99 170.53 49.97 C 170.53 52.949999999999996 172.63 56.08 176.12 56.08 C 179.81 56.08 181.59 52.87 181.59 49.89 C 181.59 46.910000000000004 179.81 43.78 176.12 43.78 L 176.12 43.78 Z M 198.84 39.89 C 204.59 39.89 209.19 43.9 209.19 49.89 C 209.19 55.88 204.59 60.04 198.84 60.04 C 193.09 60.04 188.49 55.879999999999995 188.49 49.89 C 188.49 43.900000000000006 193.09 39.89 198.84 39.89 Z M 198.84 56.07 C 202.61 56.07 204.35 52.86 204.35 49.88 C 204.35 46.900000000000006 202.60999999999999 43.77 198.84 43.77 C 195.07000000000002 43.77 193.33 46.900000000000006 193.33 49.88 C 193.33 52.86 195.07000000000002 56.07 198.84 56.07 Z M 221.62 39.89 C 227.37 39.89 231.97 43.9 231.97 49.89 C 231.97 55.88 227.37 60.04 221.62 60.04 C 215.87 60.04 211.27 55.879999999999995 211.27 49.89 C 211.27 43.900000000000006 215.87 39.89 221.62 39.89 Z M 221.62 56.07 C 225.39000000000001 56.07 227.13 52.86 227.13 49.88 C 227.13 46.900000000000006 225.39 43.77 221.62 43.77 C 217.85000000000002 43.77 216.11 46.900000000000006 216.11 49.88 C 216.11 52.85 217.85000000000002 56.07 221.62 56.07 Z M 234.85 29.5 L 239.60999999999999 29.5 L 239.60999999999999 48.45 L 239.73 48.45 L 246.95 40.440000000000005 L 253.04999999999998 40.440000000000005 L 244.80999999999997 49.050000000000004 L 253.56999999999996 59.480000000000004 L 247.26999999999995 59.480000000000004 L 239.72999999999996 49.720000000000006 L 239.60999999999996 49.720000000000006 L 239.60999999999996 59.480000000000004 L 234.84999999999997 59.480000000000004 L 234.84999999999997 29.510000000000005 L 234.84999999999997 29.510000000000005 L 234.84999999999997 29.510000000000005 Z M 266.56 45.519999999999996 C 265.73 44.41 264.14 43.459999999999994 262.4 43.459999999999994 C 260.9 43.459999999999994 259.34 44.019999999999996 259.34 45.529999999999994 C 259.34 47.03999999999999 260.81 47.39999999999999 263.46 48.029999999999994 C 266.28 48.709999999999994 269.60999999999996 49.96999999999999 269.60999999999996 53.699999999999996 C 269.60999999999996 58.339999999999996 265.84 60.05 261.67999999999995 60.05 C 258.74999999999994 60.05 255.68999999999994 58.94 253.85999999999996 56.919999999999995 L 256.98999999999995 53.989999999999995 C 258.0199999999999 55.339999999999996 259.80999999999995 56.37 261.86999999999995 56.37 C 263.25999999999993 56.37 264.92999999999995 55.809999999999995 264.92999999999995 54.11 C 264.92999999999995 52.519999999999996 263.4599999999999 52.05 260.56999999999994 51.37 C 257.74999999999994 50.69 254.93999999999994 49.55 254.93999999999994 45.98 C 254.93999999999994 41.73 258.74999999999994 39.919999999999995 262.5199999999999 39.919999999999995 C 265.24999999999994 39.919999999999995 268.1099999999999 40.87 269.6599999999999 42.809999999999995 L 266.5799999999999 45.55 L 266.5799999999999 45.55 Z M 122.38 14.46 C 122.38 19.29 126.24 22.810000000000002 131.15 22.810000000000002 C 136.06 22.810000000000002 139.93 19.290000000000003 139.93 14.460000000000003 L 139.93 3.38 L 135.17000000000002 3.38 L 135.17000000000002 13.899999999999999 C 135.17000000000002 16.5 133.43 18.25 131.14000000000001 18.25 C 128.85000000000002 18.25 127.10000000000001 16.51 127.10000000000001 13.9 L 127.10000000000001 3.38 L 122.35000000000001 3.38 C 122.35000000000001 3.38 122.38000000000001 14.46 122.38000000000001 14.46 Z M 152.65 7.830000000000001 L 158.33 7.830000000000001 L 158.33 22.43 L 163.08 22.43 L 163.08 7.83 L 168.75 7.83 L 168.75 3.38 L 152.65 3.38 L 152.65 7.83 L 152.65 7.83 Z M 149.57 3.380000000000001 L 144.82 3.380000000000001 L 144.82 22.439999999999998 L 149.57 22.439999999999998 L 149.57 3.38 Z M 103.19 7.830000000000001 L 108.87 7.830000000000001 L 108.87 22.43 L 113.62 22.43 L 113.62 7.83 L 119.29 7.83 L 119.29 3.38 L 103.2 3.38 L 103.2 7.83 L 103.2 7.83 Z M 78.25 3.380000000000001 L 73.5 3.380000000000001 L 73.5 22.439999999999998 L 78.25 22.439999999999998 L 78.25 3.38 Z M 100.69 11.350000000000001 C 100.69 6.520000000000001 96.82 3.0000000000000018 91.91 3.0000000000000018 C 87 3.0000000000000018 83.13 6.520000000000001 83.13 11.350000000000001 L 83.13 22.43 L 87.88 22.43 L 87.88 11.91 C 87.88 9.31 89.61999999999999 7.5600000000000005 91.91 7.5600000000000005 C 94.2 7.5600000000000005 95.94 9.3 95.94 11.91 L 95.94 22.43 L 100.69 22.43 L 100.69 11.35 C 100.69 11.35 100.67999999999999 11.35 100.67999999999999 11.35 Z" stroke-linecap="round" />
</g>
</svg>

<?xml version="1.0" encoding="UTF-8"?><svg id="a" xmlns="http://www.w3.org/2000/svg" viewBox="0 0 269.65 69"><defs><style>.b,.c,.d{stroke-width:0px;}.c{fill:#2ca01c;}.d{fill:#fff;}.b{fill:#fff}</style></defs><path class="c" d="m30.77,61.54c16.99,0,30.77-13.78,30.77-30.77S47.76,0,30.77,0,0,13.78,0,30.77s13.77,30.77,30.77,30.77Z"/><path class="d" d="m20.51,18.8c-6.61,0-11.97,5.36-11.97,11.97s5.35,11.96,11.97,11.96h1.71v-4.44h-1.71c-4.15,0-7.52-3.37-7.52-7.52,0-4.15,3.37-7.52,7.52-7.52h4.11v23.25c0,2.45,1.99,4.44,4.44,4.44V18.8h-8.55,0Zm20.52,23.93c6.61,0,11.97-5.36,11.97-11.96s-5.35-11.96-11.97-11.96h-1.71v4.44h1.71c4.15,0,7.52,3.37,7.52,7.52s-3.37,7.52-7.52,7.52h-4.11V15.04c0-2.45-1.99-4.44-4.44-4.44v32.13h8.55s0,0,0,0Z"/><path class="b" d="m90.75,69h-4.76v-12.05h-.08c-1.23,1.9-3.65,3.09-6.31,3.09-5.79,0-9.36-4.6-9.36-10.15s3.81-10,9.24-10c3.49,0,5.63,1.7,6.58,3.21h.12v-2.66h4.56v28.56h0s0,0,0,0Zm-10.19-12.93c3.49,0,5.59-3.13,5.59-6.11s-2.1-6.19-5.59-6.19c-3.68,0-5.47,3.13-5.47,6.11,0,2.97,1.78,6.19,5.47,6.19h0Zm31.55,3.41h-4.52v-3.06h-.08c-.83,1.9-3.09,3.61-5.91,3.61-4.96,0-7.02-3.81-7.02-7.69v-11.9h4.76v10.55c0,2.26.51,5.07,3.57,5.07s4.44-2.62,4.44-5.15v-10.47h4.76v19.03s0,0,0,0Zm4.78-19.45h4.76v19.04h-4.76s0-19.04,0-19.04Zm22.55,5.69c-.75-1.07-2.38-1.87-3.93-1.87-3.49,0-5.24,3.13-5.24,6.11s1.79,6.11,5.39,6.11c1.47,0,3.09-.6,4.01-1.7l2.97,3.01c-1.59,1.7-4.21,2.66-7.02,2.66-5.63,0-10.31-3.73-10.31-10.07s4.6-10.07,10.19-10.07c2.78,0,5.67,1.11,7.18,2.97l-3.25,2.85h0Zm5.6-16.22h4.76v18.95h.12l7.22-8.01h6.11l-8.25,8.61,8.77,10.43h-6.3l-7.54-9.76h-.12v9.76h-4.76v-29.97h0Zm25.65,0v13.37h.12c.99-1.23,2.89-2.97,6.39-2.97,5.43,0,9.24,4.36,9.24,10s-3.57,10.15-9.36,10.15c-2.66,0-5.24-1.23-6.54-3.41h-.08v2.86h-4.52v-29.99h4.76Zm5.43,14.28c-3.49,0-5.59,3.21-5.59,6.19s2.1,6.11,5.59,6.11c3.69,0,5.47-3.21,5.47-6.19s-1.78-6.11-5.47-6.11h0Zm22.72-3.89c5.75,0,10.35,4.01,10.35,10s-4.6,10.15-10.35,10.15-10.35-4.16-10.35-10.15,4.6-10,10.35-10Zm0,16.18c3.77,0,5.51-3.21,5.51-6.19s-1.74-6.11-5.51-6.11-5.51,3.13-5.51,6.11,1.74,6.19,5.51,6.19Zm22.78-16.18c5.75,0,10.35,4.01,10.35,10s-4.6,10.15-10.35,10.15-10.35-4.16-10.35-10.15,4.6-10,10.35-10Zm0,16.18c3.77,0,5.51-3.21,5.51-6.19s-1.74-6.11-5.51-6.11-5.51,3.13-5.51,6.11c0,2.97,1.74,6.19,5.51,6.19Zm13.23-26.57h4.76v18.95h.12l7.22-8.01h6.1l-8.24,8.61,8.76,10.43h-6.3l-7.54-9.76h-.12v9.76h-4.76v-29.97h0,0Zm31.71,16.02c-.83-1.11-2.42-2.06-4.16-2.06-1.5,0-3.06.56-3.06,2.07s1.47,1.87,4.12,2.5c2.82.68,6.15,1.94,6.15,5.67,0,4.64-3.77,6.35-7.93,6.35-2.93,0-5.99-1.11-7.82-3.13l3.13-2.93c1.03,1.35,2.82,2.38,4.88,2.38,1.39,0,3.06-.56,3.06-2.26,0-1.59-1.47-2.06-4.36-2.74-2.82-.68-5.63-1.82-5.63-5.39,0-4.25,3.81-6.06,7.58-6.06,2.73,0,5.59.95,7.14,2.89l-3.08,2.74h0ZM122.38,14.46c0,4.83,3.86,8.35,8.77,8.35s8.78-3.52,8.78-8.35V3.38h-4.76v10.52c0,2.6-1.74,4.35-4.03,4.35s-4.04-1.74-4.04-4.35V3.38h-4.75s.03,11.08.03,11.08Zm30.27-6.63h5.68v14.6h4.75V7.83h5.67V3.38h-16.1v4.45h0Zm-3.08-4.45h-4.75v19.06h4.75V3.38Zm-46.38,4.45h5.68v14.6h4.75V7.83h5.67V3.38h-16.09v4.45h0Zm-24.94-4.45h-4.75v19.06h4.75V3.38Zm22.44,7.97c0-4.83-3.87-8.35-8.78-8.35s-8.78,3.52-8.78,8.35v11.08h4.75v-10.52c0-2.6,1.74-4.35,4.03-4.35s4.03,1.74,4.03,4.35v10.52h4.75v-11.08s-.01,0-.01,0Z"/></svg>
